images/quote1.svg

<svg xmlns="http://www.w3.org/2000/svg" xmlns:xlink="http://www.w3.org/1999/xlink" preserveAspectRatio="xMidYMid" width="110" height="104" viewBox="0 0 110 104">
  <defs>
    <style>
      .cls-1, .cls-2, .cls-3 {
        fill: #fff;
      }

      .cls-1 {
        fill-rule: evenodd;
      }

      .cls-3 {
        opacity: 0.4;
      }
    </style>
  </defs>
  <g>
    <path d="M114.000,104.000 L3.000,104.000 C1.343,104.000 0.000,102.657 0.000,101.000 L0.000,3.000 C0.000,1.343 1.343,-0.000 3.000,-0.000 L114.000,-0.000 C115.657,-0.000 117.000,1.343 117.000,3.000 L117.000,101.000 C117.000,102.657 115.657,104.000 114.000,104.000 ZM115.000,5.000 C115.000,3.343 113.657,2.000 112.000,2.000 L5.000,2.000 C3.343,2.000 2.000,3.343 2.000,5.000 L2.000,99.000 C2.000,100.657 3.343,102.000 5.000,102.000 L112.000,102.000 C113.657,102.000 115.000,100.657 115.000,99.000 L115.000,5.000 ZM17.500,8.000 C16.672,8.000 16.000,7.328 16.000,6.500 C16.000,5.672 16.672,5.000 17.500,5.000 C18.328,5.000 19.000,5.672 19.000,6.500 C19.000,7.328 18.328,8.000 17.500,8.000 ZM12.500,8.000 C11.672,8.000 11.000,7.328 11.000,6.500 C11.000,5.672 11.672,5.000 12.500,5.000 C13.328,5.000 14.000,5.672 14.000,6.500 C14.000,7.328 13.328,8.000 12.500,8.000 ZM7.500,8.000 C6.672,8.000 6.000,7.328 6.000,6.500 C6.000,5.672 6.672,5.000 7.500,5.000 C8.328,5.000 9.000,5.672 9.000,6.500 C9.000,7.328 8.328,8.000 7.500,8.000 Z" class="cls-1"/>
    <rect x="9" y="33" width="55" height="8" rx="2" ry="2" class="cls-2"/>
    <rect x="9" y="19" width="55" height="8" rx="2" ry="2" class="cls-2"/>
    <rect x="9" y="82" width="23" height="8" rx="2" ry="2" class="cls-3"/>
    <rect x="9" y="61" width="92" height="16" rx="2" ry="2" class="cls-2"/>
    <g>
      <path d="M19.000,51.000 L19.000,50.000 L32.000,50.000 L32.000,51.000 L19.000,51.000 Z" class="cls-1"/>
      <path d="M12.500,53.000 C11.119,53.000 10.000,51.881 10.000,50.500 C10.000,49.119 11.119,48.000 12.500,48.000 C13.881,48.000 15.000,49.119 15.000,50.500 C15.000,51.881 13.881,53.000 12.500,53.000 ZM12.500,49.000 C11.672,49.000 11.000,49.672 11.000,50.500 C11.000,51.328 11.672,52.000 12.500,52.000 C13.328,52.000 14.000,51.328 14.000,50.500 C14.000,49.672 13.328,49.000 12.500,49.000 Z" class="cls-1"/>
      <path d="M49.000,51.000 L49.000,50.000 L68.000,50.000 L68.000,51.000 L49.000,51.000 Z" class="cls-1"/>
      <circle cx="42.5" cy="50.5" r="2.5" class="cls-2"/>
    </g>
  </g>
</svg>

<svg xmlns="http://www.w3.org/2000/svg" preserveAspectRatio="xMidYMid" width="110" height="104"><defs><style>.cls-1,.cls-2{fill:#fff}.cls-1{fill-rule:evenodd}</style></defs><path d="M114 104H3a3 3 0 01-3-3V3a3 3 0 013-3h111a3 3 0 013 3v98a3 3 0 01-3 3zm1-99a3 3 0 00-3-3H5a3 3 0 00-3 3v94a3 3 0 003 3h107a3 3 0 003-3V5zM17.5 8a1.5 1.5 0 11.001-3.001A1.5 1.5 0 0117.5 8zm-5 0a1.5 1.5 0 11.001-3.001A1.5 1.5 0 0112.5 8zm-5 0a1.5 1.5 0 11.001-3.001A1.5 1.5 0 017.5 8z" class="cls-1"/><rect x="9" y="33" width="55" height="8" rx="2" ry="2" class="cls-2"/><rect x="9" y="19" width="55" height="8" rx="2" ry="2" class="cls-2"/><rect x="9" y="82" width="23" height="8" rx="2" ry="2" opacity=".4" fill="#fff"/><rect x="9" y="61" width="92" height="16" rx="2" ry="2" class="cls-2"/><path d="M19 51v-1h13v1H19zm-6.5 2a2.5 2.5 0 110-5 2.5 2.5 0 010 5zm0-4a1.5 1.5 0 10.001 3.001A1.5 1.5 0 0012.5 49zM49 51v-1h19v1H49z" class="cls-1"/><circle cx="42.5" cy="50.5" r="2.5" class="cls-2"/></svg>
